X:305
T:French Rigaudon,The. (p)1689.PLFD.305
T:Rigaudon,The. (p)1689.PLFD.305
M:4/4
L:1/8
Q:1/2=60
S:Playford, Dancing Master,7th Ed,3rd.Supp,1689.
R:.Rigaudon
O:England
H:1689.
Z:Chris Partington.
K:C
   c | e2f3/e/4f/4 g3g | aa a3/g/4f/4 gggg | aa a3/g/4f/4 gagf | e2d2c3 :|
|: c | d2e2d3c | defe dedc | B2A2G3c | defd gfed | c>dd2c3 :|
   g | edecd2dg | edecd3g | edecd2dg | edecd3 ||
|: d | BGcd e/d/e/f/ ea | ^fgafg3g | fedc d/c/B/A/ Gg | cdd2c3 :|
